Icons/Colored/ArrowDownSliderShortOutlined.svg

<svg xmlns="http://www.w3.org/2000/svg" xml:space="preserve" fill-rule="evenodd" stroke-linejoin="round" stroke-miterlimit="2" clip-rule="evenodd" viewBox="0 0 64 64">
  <g id="blue">
    <path fill="#73a7c7" d="M44.056 33.262 33 44.319V18.267h11.056v14.995Zm-24.112 0V18.267H31v26.052L19.944 33.262Z"/>
    <path fill="#4bc3f1" d="M45.056 33.677 32 46.733V17.267h13.056v16.41Zm-1-.415V18.267H33v26.052l11.056-11.057Z"/>
    <path fill="#4f8198" d="M18.944 33.677v-16.41H32v29.466L18.944 33.677Zm1-.415L31 44.319V18.267H19.944v14.995Z"/>
  </g>
</svg>

<?xml version="1.0" encoding="UTF-8" standalone="no"?>
<!DOCTYPE svg PUBLIC "-//W3C//DTD SVG 1.1//EN" "http://www.w3.org/Graphics/SVG/1.1/DTD/svg11.dtd">
<svg width="100%" height="100%" viewBox="0 0 64 64" version="1.1" xmlns="http://www.w3.org/2000/svg" xmlns:xlink="http://www.w3.org/1999/xlink" xml:space="preserve" xmlns:serif="http://www.serif.com/" style="fill-rule:evenodd;clip-rule:evenodd;stroke-linejoin:round;stroke-miterlimit:2;">
    <path d="M18.944,17.267L45.056,17.267L45.056,33.677L32,46.733L18.944,33.677L18.944,17.267Z" style="fill:#73a7c7;fill-rule:nonzero;"/>
    <path d="M45.056,33.677L32,46.733L32,17.267L45.056,17.267L45.056,33.677ZM44.056,33.262L44.056,18.267L33,18.267L33,44.319L44.056,33.262Z" style="fill:#4bc3f1;"/>
    <path d="M18.944,33.677L18.944,17.267L32,17.267L32,46.733L18.944,33.677ZM19.944,33.262L31,44.319L31,18.267L19.944,18.267L19.944,33.262Z" style="fill:#4f8198;"/>
</svg>
